X: 350
T: A Sligo Air
R: waltz
M: 3/4
K: Amajor
AF|E2F2A2|A2B2cA|d3d B/c/d|e2c2AA|
A3B BA|B3B cd|e2dc BA|F2A2AF|
E2Ec EF|.AA AB cA|B2A2A2|1 A3B:|2 A3A Bc||
d3e dB|c2A2F2|E2c2EF|A4.AA|
A2c2e2|B3B cd|e2dc BA|F2A2AF|
E2Ec EF|.AA AB cA|B2A2A2|1 A3A Bc:|2 A4|

